Simply-Green-Circles/scalable/apps/qjackctl.svg

<?xml version="1.0" encoding="UTF-8" standalone="no"?>
<svg
   xmlns:dc="http://purl.org/dc/elements/1.1/"
   xmlns:cc="http://creativecommons.org/ns#"
   xmlns:rdf="http://www.w3.org/1999/02/22-rdf-syntax-ns#"
   xmlns:svg="http://www.w3.org/2000/svg"
   xmlns="http://www.w3.org/2000/svg"
   xmlns:sodipodi="http://sodipodi.sourceforge.net/DTD/sodipodi-0.dtd"
   xmlns:inkscape="http://www.inkscape.org/namespaces/inkscape"
   width="48"
   height="48"
   viewBox="0 0 12.7 12.7"
   version="1.1"
   id="svg4"
   sodipodi:docname="qjackctl.svg"
   inkscape:version="0.92.4 (5da689c313, 2019-01-14)">
  <metadata
     id="metadata10">
    <rdf:RDF>
      <cc:Work
         rdf:about="">
        <dc:format>image/svg+xml</dc:format>
        <dc:type
           rdf:resource="http://purl.org/dc/dcmitype/StillImage" />
        <dc:title></dc:title>
      </cc:Work>
    </rdf:RDF>
  </metadata>
  <defs
     id="defs8" />
  <sodipodi:namedview
     pagecolor="#ffffff"
     bordercolor="#666666"
     borderopacity="1"
     objecttolerance="10"
     gridtolerance="10"
     guidetolerance="10"
     inkscape:pageopacity="0"
     inkscape:pageshadow="2"
     inkscape:window-width="1087"
     inkscape:window-height="480"
     id="namedview6"
     showgrid="false"
     inkscape:zoom="4.9166667"
     inkscape:cx="2.1355932"
     inkscape:cy="24"
     inkscape:window-x="0"
     inkscape:window-y="25"
     inkscape:window-maximized="0"
     inkscape:current-layer="svg4" />
  <path
     d="M 6.344,0.077 A 6.267,6.267 0 0 0 0.076,6.344 6.267,6.267 0 0 0 6.344,12.611 6.267,6.267 0 0 0 12.611,6.344 6.267,6.267 0 0 0 6.344,0.077 Z M 6.326,1.009 A 5.388,5.388 0 0 1 11.714,6.399 5.388,5.388 0 0 1 6.326,11.786 5.388,5.388 0 0 1 0.937,6.398 5.388,5.388 0 0 1 6.327,1.009 Z M 9.35,2.814 9.117,3.283 9.438,3.603 9.906,3.371 9.85,2.871 Z M 8.93,3.302 8.815,3.416 9.305,3.906 9.42,3.792 Z M 8.737,3.493 8.059,4.172 8.549,4.662 9.228,3.984 8.738,3.494 Z M 8,4.231 7.085,5.145 6.631,4.692 4.448,6.876 4.039,7.751 3.449,8.341 3.664,8.557 2.691,9.537 3.143,9.989 4.117,9.009 4.329,9.222 4.912,8.639 4.92,8.646 5.805,8.233 7.989,6.05 7.575,5.637 8.49,4.723 8,4.23 Z"
     id="path2"
     inkscape:connector-curvature="0"
     style="fill:#2ca02c" />
</svg>

<svg xmlns="http://www.w3.org/2000/svg" width="48" height="48" viewBox="0 0 12.7 12.7"><path fill="#2ca02c" d="M6.34.08A6.27 6.27 0 0 0 .08 6.34a6.27 6.27 0 0 0 6.26 6.27 6.27 6.27 0 0 0 6.27-6.27A6.27 6.27 0 0 0 6.34.08zM6.33 1A5.39 5.39 0 0 1 11.7 6.4a5.39 5.39 0 0 1-5.38 5.39 5.39 5.39 0 0 1-5.4-5.4 5.39 5.39 0 0 1 5.4-5.38zm3.02 1.8l-.23.47.32.32.47-.23-.06-.5-.5-.06zm-.42.5l-.12.1.5.5.11-.12-.49-.49zm-.2.18l-.67.68.49.5.68-.69-.5-.49zM8 4.23l-.92.91-.45-.45-2.18 2.19-.41.87-.6.6.22.2-.97.99.45.45.98-.98.2.21.6-.58.89-.4 2.18-2.19-.42-.41.92-.92L8 4.23z"/></svg>
